!!!COM: Power, Leonel
!!!OTL: Regina celi letare
!!!ONM: No. 19
!!!YOR: from: "Complete Works" edited by Charles Hamm, Vol. 1, Motets, pp.38-40
!!!YOO: American Institute of Musicology
!!!YOY: 1969
**kern	**kern	**kern
*ICvox	*ICvox	*ICvox
! tenor	! contratenor	! discantus
*M3/4	*M3/4	*M3/4
=1	=1	=1
*>A1	*>A1	*>A1
!! Section 'A1'; (O) mensuration.
[2.c	2.r	2.c
=2	=2	=2
2c]	2.r	4.c
.	.	8d
4c	.	4e
=3	=3	=3
4A	2.r	4f
2F	.	4.a
.	.	8g
=4	=4	=4
8B-	2.r	4g
16A	.	.
16B-	.	.
8c	.	8e
8A	.	8f
4G	.	8g
.	.	8e
=5	=5	=5
8B	2.r	4d
4d	.	.
.	.	8f
4c	.	8e
.	.	8c
8B	.	8d
=6	=6	=6
4c	2.r	4e
8A	.	8.f
8B-x	.	.
.	.	16g
8A	.	4a
8F	.	.
=7	=7	=7
8E	2.r	8g
4F	.	8.f
.	.	16d
8A	.	8f
4G	.	8g
.	.	8e
=8	=8	=8
[2.F	2.r	2.f
=9	=9	=9
2F]	2.r	2r
4D	.	8f
.	.	16e
.	.	16f
=10	=10	=10
2.C	2.r	4g
.	.	4.e
.	.	8c
=11	=11	=11
2.F	2.r	8c
.	.	16B
.	.	16c
.	.	8d
.	.	8c
.	.	4A
=12	=12	=12
2G	2.r	4G
.	.	4r
[4A	.	[4c
=13	=13	=13
4A]	2.r	8c]
.	.	8d
8F	.	4f
8D	.	.
4C	.	8e
.	.	[8c
=14	=14	=14
8E	2.r	8c]
8F	.	8A
4G	.	8G
.	.	8B
4A	.	8c
.	.	8d
=15	=15	=15
8F	2.r	16c
.	.	16d
4G	.	4.e
8E	.	.
8F	.	8c
8G	.	8B
=16	=16	=16
8A	2.r	8c
8.G	.	4d
16E	.	.
8F	.	8A
4D	.	8B
.	.	16A
.	.	16B
=17	=17	=17
[2.C	2.r	[2.c
=18	=18	=18
2.C]	2.r	2.c]
=19	=19	=19
*>A2	*>A2	*>A2
!! Section 'A2'; (O) mensuration.
[2.G	2G	2g
.	[4B	4e
=20	=20	=20
4G]	4B]	4d
2E	2c	4.g
.	.	16f
.	.	16g
=21	=21	=21
2.D	4d	4.a
.	4.B	.
.	.	8g
.	.	8f
.	8A	8e
=22	=22	=22
2C	2c	4e
.	.	4.a
4G	4B	.
.	.	8g
=23	=23	=23
4B	4d	4g
2A	4.c	4.f#x
.	8B	8e
=24	=24	=24
[2.G	4d	2.g
.	8e	.
.	8d	.
.	8c	.
.	8B	.
=25	=25	=25
2.G]	2B	2r
.	4G	4g
=26	=26	=26
2c	2C	8e
.	.	8f
.	.	4g
4c	4r	4a
=27	=27	=27
4A	4c	4a
2d	4G	4.b
.	4d	.
.	.	8a
=28	=28	=28
4c	2e	4.cc
4G	.	.
.	.	8b
[4B	4d	8a
.	.	8g
=29	=29	=29
4B]	2d	4g
2A	.	8a
.	.	4f#x
.	4c	.
.	.	8e
=30	=30	=30
[2.G	2d	2g
.	4r	4e
=31	=31	=31
2G]	2.B	4r
.	.	4d
4E	.	4g
=32	=32	=32
2.D	4d	2a
.	4c	.
.	4A	4f
=33	=33	=33
2A	2A	4f
.	.	4e
4B	[4G	4r
=34	=34	=34
4G	4G]	8e
.	.	16d
.	.	16e
4D	4A	8f
.	.	4a
8F	4B	.
8G	.	8g
=35	=35	=35
4.A	4.c	4e
.	.	8f
8G	8B	4g
8E	8B	.
8C	8c	8e
=36	=36	=36
4G	4B	8e
.	.	16d
.	.	16e
2F	2A	8f
.	.	4d
.	.	8c
=37	=37	=37
2.E	[2.B	2.e
=38	=38	=38
2.G	2.B]	2.r
=39	=39	=39
[2.C	2c	2e
.	4c	[4g
=40	=40	=40
2.C]	4G	4g]
.	8A	4a
.	4c	.
.	.	4g
.	8B	.
=41	=41	=41
2.D	2A	4f
.	.	4d
.	4A	8g
.	.	8a
=42	=42	=42
4G	4G	2g
2A	2c	.
.	.	8f#x
.	.	8e
=43	=43	=43
2.G	2.d	2.g
!! Hamm is incorrect in the length of the final long;
!! therefore bar 44 has not been encoded.
=45	=45	=45
*>B	*>B	*>B
!! Section 'B'; (C/) mensuration.
*M2/4	*M2/4	*M2/4
[2d	2r	[2d
=46	=46	=46
2d]	2r	2d]
=47	=47	=47
4c	2r	4e
4A	.	4f
=48	=48	=48
4G	2r	2g
[4c	.	.
=49	=49	=49
4c]	2r	4e
[4B	.	4g
=50	=50	=50
4B]	2r	4f
[4d	.	4d
=51	=51	=51
4d]	2r	4.a
4c	.	.
.	.	8g
=52	=52	=52
4e	2r	4.g
8d	.	.
[8c	.	8f
=53	=53	=53
8c]	2r	8e
8B	.	8d
4c	.	4g
=54	=54	=54
2A	2r	4a
.	.	8f#x
.	.	8e
=55	=55	=55
[2G	2r	2g
=56	=56	=56
2G]	2r	4r
.	.	4g
=57	=57	=57
2C	2r	[2e
=58	=58	=58
4r	2r	2e]
[4c	.	.
=59	=59	=59
4c]	2r	4c
4B	.	4d
=60	=60	=60
[2c	2r	2e
=61	=61	=61
4c]	2r	4c
[4G	.	[4d
=62	=62	=62
4G]	2r	8d]
.	.	8c
4c	.	4A
=63	=63	=63
4d	2r	4F
[4e	.	[4c
=64	=64	=64
4e]	2r	4c]
4c	.	4e
=65	=65	=65
4.B	2r	2d
8A	.	.
=66	=66	=66
[2c	2r	2c
=67	=67	=67
2c]	2r	2r
=68	=68	=68
2r	2r	4e
.	.	4f
=69	=69	=69
4B	2r	2g
4G	.	.
=70	=70	=70
[2c	2r	4e
.	.	4g
=71	=71	=71
4c]	2r	4f
[4d	.	4d
=72	=72	=72
4d]	2r	8f
.	.	8g
4c	.	[4a
=73	=73	=73
4G	2r	8a]
.	.	8g
4B	.	[4g
=74	=74	=74
2A	2r	8g]
.	.	8f#x
.	.	8f#x
.	.	8e
=75	=75	=75
[2G	2r	2g
=76	=76	=76
4G]	2r	2e
[4c	.	.
=77	=77	=77
4c]	2r	4r
4A	.	4c
=78	=78	=78
4.A	2r	4.e
8F	.	8d
=79	=79	=79
4G	2r	2B
8F	.	.
8G	.	.
=80	=80	=80
[2A	2r	2A
=81	=81	=81
2A]	2r	4r
.	.	4c
=82	=82	=82
2G	2r	2e
=83	=83	=83
4B	2r	4d
4c	.	4c
=84	=84	=84
4B	2r	8e
.	.	8f
[4G	.	8g
.	.	8f
=85	=85	=85
4G]	2r	8e
.	.	8d
4D	.	4f
=86	=86	=86
4C	2r	8e
.	.	8d
8F	.	4d
8G	.	.
=87	=87	=87
2E	2r	8e
.	.	4c#x
.	.	8B
=88	=88	=88
[2D	2r	2d
=89	=89	=89
2D]	2r	2r
=90	=90	=90
*>C1	*>C1	*>C1
!! Section 'C1'; (C/) mensuration.
[2A	[2A	[2e
=91	=91	=91
2A_	4A]	4e]
.	4B	4c
=92	=92	=92
2A_	[2c	4e
.	.	4f
=93	=93	=93
2A]	2c]	[2a
=94	=94	=94
[2B	4r	4a]
.	4d	[4g
=95	=95	=95
2B]	2d	4g]
.	.	4f
=96	=96	=96
[2A	4r	2a
.	4c	.
=97	=97	=97
2A]	2c	4f
.	.	4e
=98	=98	=98
2D	2d	4g
.	.	4f
=99	=99	=99
2G	2B	2d
=100	=100	=100
[2A	[2c	2c
=101	=101	=101
4A]	4c]	4f
4G	4B	[4g
=102	=102	=102
4B	4d	4g]
4A	4c	4f
=103	=103	=103
4F	4A	4d
[4G	[4B	[4e
=104	=104	=104
4G]	4B]	8e]
.	.	8d
4D	[4A	[4d
=105	=105	=105
2E	4A]	8d]
.	.	4c#x
.	4G	.
.	.	8B
=106	=106	=106
[2D	2A	2d
=107	=107	=107
2D]	2B	2r
=108	=108	=108
[2C	[2c	2e
=109	=109	=109
2C]	2c]	4g
.	.	[4a
=110	=110	=110
4F	4A	4a]
4G	4B	4g
=111	=111	=111
2A	2c	4e
.	.	4f
=112	=112	=112
4B	4G	4d
[4c	4r	8e
.	.	8f
=113	=113	=113
4c]	2c	4g
[4F	.	4a
=114	=114	=114
4F]	4A	8b-
.	.	8a
4A	4c	[4f
=115	=115	=115
2G	4d	8f]
.	.	16e
.	.	16f
.	8B	8e
.	8A	8d
=116	=116	=116
2F	2c	2f
!! Hamm is incorrect in the length of the final long;
!! Bar 117 has therefore not been encoded.
=118	=118	=118
*>C2	*>C2	*>C2
!! Section 'C2'; (O) mensuration.
[2.c	[2.C	2e
.	.	[4g
=119	=119	=119
2.c]	2.C]	4g]
.	.	4.a
.	.	8g
=120	=120	=120
2G	[2.G	4g
.	.	4e
[4B	.	4d
=121	=121	=121
4B]	4G]	4g
4A	2c	4.a
[4F	.	.
.	.	8g
=122	=122	=122
4F]	2d	4.cc
4G	.	.
.	.	8b
4c	4c	8a
.	.	8g
=123	=123	=123
4B	4d	4g
2A	4e	4.f#x
.	8c	.
.	8B	8e
=124	=124	=124
2G	8d	2g
.	4B	.
.	8G	.
4G	8B	4e
.	8c	.
=125	=125	=125
2D	2d	4r
.	.	4.a
4D	8A	.
.	8B	8g
=126	=126	=126
4E	4c	4g
4D	8d	8f
.	8c	4e
4G	8B	.
.	8A	8d
=127	=127	=127
4F	4A	4.d
2E	4.G	.
.	.	8c#x
.	.	8c#x
.	8F	16d
.	.	16B
=128	=128	=128
2.D	2.A	2.d
==	==	==
*-	*-	*-
!!!ENC: Mark Laxton
!!!EDD: Mark Laxton
!!!YEC: Mark Laxton, 1987
!!!EMD: Reference records added by D. Huron, 2001
!!!EEV: 1.1
